brandFactory_export/2.Regular/Descargar_Descarga app_2Regular.svg

<?xml version="1.0" encoding="UTF-8"?>
<svg width="24px" height="24px" viewBox="0 0 24 24" version="1.1" xmlns="http://www.w3.org/2000/svg" xmlns:xlink="http://www.w3.org/1999/xlink">
    <title>2.Regular/Descargar_Descarga app_2Regular</title>
    <g id="Symbols" stroke="none" stroke-width="1" fill="none" fill-rule="evenodd">
        <g id="2.Regular/Descargar_Descarga-app_2Regular" fill="#5CB615" fill-rule="nonzero">
            <path d="M15.8453782,1.49213975e-13 C17.1764706,1.49213975e-13 18.1445378,0.322689076 18.810084,0.991596639 C19.4756303,1.6605042 19.794958,2.62521008 19.794958,3.94957983 L19.794958,19.6806723 C19.794958,21.0184874 19.4689076,21.9932773 18.8033613,22.6554622 C18.1378151,23.3109244 17.1731092,23.6302521 15.8453782,23.6302521 L7.97983193,23.6302521 C6.65210084,23.6302521 5.68403361,23.3109244 5.02184874,22.6554622 C4.35294118,21.9932773 4.0302521,21.0184874 4.0302521,19.6806723 L4.0302521,3.94957983 C4.0302521,2.64537815 4.35294118,1.68739496 5.0184874,1.01176471 C5.6907563,0.332773109 6.65882353,1.49213975e-13 7.97983193,1.49213975e-13 L15.8453782,1.49213975e-13 Z M15.8453782,1.34453782 L7.97983193,1.34453782 C6.13109244,1.34453782 5.37478992,2.10084034 5.37478992,3.94957983 L5.37478992,19.6806723 C5.37478992,21.5798319 6.08067227,22.2857143 7.97983193,22.2857143 L15.8453782,22.2857143 C17.7445378,22.2857143 18.4504202,21.5798319 18.4504202,19.6806723 L18.4504202,3.94957983 C18.4504202,2.99831933 18.2554622,2.3394958 17.8588235,1.9394958 C17.4621849,1.5394958 16.8,1.34453782 15.8453782,1.34453782 Z M11.9159664,18.1546218 C12.7529412,18.1546218 13.2470588,18.6554622 13.2470588,19.492437 C13.2470588,19.902521 13.1294118,20.2285714 12.9008403,20.4638655 C12.6722689,20.6991597 12.3226891,20.8302521 11.912605,20.8302521 C11.502521,20.8302521 11.1596639,20.702521 10.9277311,20.4638655 C10.6957983,20.2252101 10.5815126,19.8991597 10.5815126,19.492437 C10.5815126,18.6554622 11.0789916,18.1546218 11.9159664,18.1546218 Z M10.8369748,3.92941176 L13.0420168,3.92941176 C13.6201681,3.92941176 14.087395,4.39327731 14.0907563,4.97142857 C14.0907563,5.00840336 14.0907563,5.04201681 14.0840336,5.0789916 L14.0840336,10.9210084 L15.8722689,10.9210084 C16.205042,10.9210084 16.4739496,11.1865546 16.4739496,11.5193277 C16.4739496,11.6638655 16.4235294,11.805042 16.3260504,11.9159664 L12.3563025,16.487395 C12.2453782,16.6184874 12.0806723,16.6957983 11.9058824,16.6957983 C11.7310924,16.6957983 11.5663866,16.6184874 11.4521008,16.487395 L7.49243697,11.9159664 C7.27394958,11.6638655 7.30084034,11.2840336 7.55294118,11.0689076 C7.66386555,10.9747899 7.80168067,10.9210084 7.94621849,10.9210084 L9.67058824,10.9210084 L9.67058824,5.01512605 C9.6605042,4.71596639 9.77815126,4.4302521 9.99663866,4.22521008 C10.2218487,4.01008403 10.5277311,3.90252101 10.8369748,3.92941176 Z M12.8840336,5.13277311 L10.8739496,5.13277311 L10.8739496,11.5226891 C10.8739496,11.8554622 10.605042,12.1243697 10.2722689,12.1243697 L9.26386555,12.1243697 L11.9058824,15.1798319 L14.5579832,12.1243697 L13.4857143,12.1243697 C13.1529412,12.1243697 12.8840336,11.8554622 12.8840336,11.5226891 L12.8840336,5.13277311 Z" id="Descargar_Descarga-app_2Regular"></path>
        </g>
    </g>
</svg>

<svg width="24" height="24" viewBox="0 0 24 24" xmlns="http://www.w3.org/2000/svg"><path d="M15.845 0c1.331 0 2.3.323 2.965.992.666.669.985 1.633.985 2.958v15.73c0 1.338-.326 2.313-.992 2.975-.665.656-1.63.975-2.958.975H7.98c-1.328 0-2.296-.32-2.958-.975-.67-.662-.992-1.637-.992-2.974V3.95c0-1.305.323-2.263.988-2.938C5.691.332 6.658 0 7.98 0h7.865zm0 1.345H7.98c-1.849 0-2.605.756-2.605 2.605v15.73c0 1.9.706 2.606 2.605 2.606h7.865c1.9 0 2.605-.706 2.605-2.605V3.95c0-.952-.195-1.61-.591-2.01-.397-.4-1.059-.595-2.014-.595zm-3.929 16.81c.837 0 1.331.5 1.331 1.337 0 .41-.118.737-.346.972-.229.235-.578.366-.988.366-.41 0-.753-.127-.985-.366-.232-.239-.346-.565-.346-.972 0-.837.497-1.337 1.334-1.337zM10.837 3.929h2.205c.578 0 1.045.464 1.049 1.042 0 .037 0 .071-.007.108v5.842h1.788a.598.598 0 01.454.995l-3.97 4.571a.59.59 0 01-.45.209.603.603 0 01-.454-.209l-3.96-4.571a.598.598 0 01.06-.847.608.608 0 01.394-.148h1.725V5.015c-.01-.299.107-.585.326-.79a1.08 1.08 0 01.84-.296zm2.047 1.204h-2.01v6.39a.601.601 0 01-.602.601H9.264l2.642 3.056 2.652-3.056h-1.072a.601.601 0 01-.602-.601v-6.39z" fill="#5CB615" fill-rule="nonzero"/></svg>
